X:0209
T:McCrae's Fancy.
M:C|
L:1/8
Q:1/2=100
I: :: ::
Z:Jack Campin * www.campin.me.uk * 2009
K:D
A/G/|FAdd d2cB|cdec A2AG|FAdg fedc|d2AF D3 :|
A   |GFED FAAF|GFGA B2A2|dcde gfed|fgab a2A2|
     GFED FAAF|GFGA B2d2|AFdA BGFE|D2DD D3 :|
<end>
<start>
